public/img/fastforward.svg

<svg xmlns="http://www.w3.org/2000/svg" width="69" height="51">
  <path d="M66.8 23L31.3.9c-.9-.6-2.1-.6-3-.1-.9.5-1.5 1.5-1.5 2.6v11.1L5 .9C4.1.3 2.9.3 2 .8 1.1 1.3.5 2.3.5 3.4v44.2c0 1.1.6 2.1 1.5 2.6.5.2.9.4 1.4.4.5 0 1.1-.1 1.6-.4l21.8-13.6v11.1c0 1.1.6 2.1 1.5 2.6.5.2.9.4 1.4.4.5 0 1.1-.1 1.6-.4L66.8 28c.9-.5 1.4-1.5 1.4-2.5s-.5-2-1.4-2.5zM6.4 42.3V8.7l20.4 12.7v8.1L6.4 42.3zm26.3 0V8.7l26.9 16.8-26.9 16.8z"/>
</svg>

<?xml version="1.0" encoding="UTF-8"?>
<svg width="69px" height="51px" viewBox="0 0 69 51" version="1.1" xmlns="http://www.w3.org/2000/svg" xmlns:xlink="http://www.w3.org/1999/xlink">
    <!-- Generator: Sketch 47 (45396) - http://www.bohemiancoding.com/sketch -->
    <title>Shape</title>
    <desc>Created with Sketch.</desc>
    <defs></defs>
    <g id="Page-1" stroke="none" stroke-width="1" fill="none" fill-rule="evenodd">
        <g id="noun_384114_cc" fill-rule="nonzero" fill="#000000">
            <path d="M66.8,23 L31.3,0.9 C30.4,0.3 29.2,0.3 28.3,0.8 C27.4,1.3 26.8,2.3 26.8,3.4 L26.8,14.5 L5,0.9 C4.1,0.3 2.9,0.3 2,0.8 C1.1,1.3 0.5,2.3 0.5,3.4 L0.5,47.6 C0.5,48.7 1.1,49.7 2,50.2 C2.5,50.4 2.9,50.6 3.4,50.6 C3.9,50.6 4.5,50.5 5,50.2 L26.8,36.6 L26.8,47.7 C26.8,48.8 27.4,49.8 28.3,50.3 C28.8,50.5 29.2,50.7 29.7,50.7 C30.2,50.7 30.8,50.6 31.3,50.3 L66.8,28 C67.7,27.5 68.2,26.5 68.2,25.5 C68.2,24.5 67.7,23.5 66.8,23 Z M6.4,42.3 L6.4,8.7 L26.8,21.4 L26.8,29.5 L6.4,42.3 Z M32.7,42.3 L32.7,31.2 L32.7,19.8 L32.7,8.7 L59.6,25.5 L32.7,42.3 Z" id="Shape"></path>
        </g>
    </g>
</svg>
